**kern
*clefF4
*k[]
*M4/4
=1
*^
2E 2G 2c	2C
2E-X 2G-X 2c	2AA-X
*v	*v
=2
1D-X 1D- 1F 1d-X
=3||
*^
2F 2A-X 2f	2D-X
2F 2G 2c	2Dn
*v	*v
=4
2C 2E 2G 2c
2r
=5||
*^
2E 2G 2c	2C
2E 2G 2c#X	2AA
*v	*v
=6
1D 1D 1F 1d
=7||
*^
2F 2A 2d	2D
2F 2G 2d	2BB
=8	=8
2E 2G 2c	2C
2r	2r
=9||	=9||
2E 2G 2c	2C
2F 2A-X 2d	2BB-X
*v	*v
=10
1EE-X 1E-X 1G 1e-X
!!linebreak:original
=11||
*^
2GG 2BB-X 2E-X	2EE-X
2GG 2BBn 2F	2DD
*v	*v
=12
1CC 1GG 1C 1E-X
=13||
*^
2E 2G 2c	2EE
2D#X 2F#X 2B	2AA
*v	*v
=14
1GG 1E 1E 1B
=15||
*^
2GG 2BB 2E	2EE
2GG 2BB 2F	2DD
=16	=16
2GG 2C 2E	2CC
2r	2r
*v	*v
==
*-
!!!system-decoration: [(s1
